V6_wwwroot/ptn/core/icons/fa6/svgs/solid/city.svg

<svg xmlns="http://www.w3.org/2000/svg" viewBox="0 0 640 512"><!--! Font Awesome Free 6.7.2 by @fontawesome - https://fontawesome.com License - https://fontawesome.com/license/free (Icons: CC BY 4.0, Fonts: SIL OFL 1.1, Code: MIT License) Copyright 2024 Fonticons, Inc. --><path d="M480 48c0-26.5-21.5-48-48-48L336 0c-26.5 0-48 21.5-48 48l0 48-64 0 0-72c0-13.3-10.7-24-24-24s-24 10.7-24 24l0 72-64 0 0-72c0-13.3-10.7-24-24-24S64 10.7 64 24l0 72L48 96C21.5 96 0 117.5 0 144l0 96L0 464c0 26.5 21.5 48 48 48l256 0 32 0 96 0 160 0c26.5 0 48-21.5 48-48l0-224c0-26.5-21.5-48-48-48l-112 0 0-144zm96 320l0 32c0 8.8-7.2 16-16 16l-32 0c-8.8 0-16-7.2-16-16l0-32c0-8.8 7.2-16 16-16l32 0c8.8 0 16 7.2 16 16zM240 416l-32 0c-8.8 0-16-7.2-16-16l0-32c0-8.8 7.2-16 16-16l32 0c8.8 0 16 7.2 16 16l0 32c0 8.8-7.2 16-16 16zM128 400c0 8.8-7.2 16-16 16l-32 0c-8.8 0-16-7.2-16-16l0-32c0-8.8 7.2-16 16-16l32 0c8.8 0 16 7.2 16 16l0 32zM560 256c8.8 0 16 7.2 16 16l0 32c0 8.8-7.2 16-16 16l-32 0c-8.8 0-16-7.2-16-16l0-32c0-8.8 7.2-16 16-16l32 0zM256 176l0 32c0 8.8-7.2 16-16 16l-32 0c-8.8 0-16-7.2-16-16l0-32c0-8.8 7.2-16 16-16l32 0c8.8 0 16 7.2 16 16zM112 160c8.8 0 16 7.2 16 16l0 32c0 8.8-7.2 16-16 16l-32 0c-8.8 0-16-7.2-16-16l0-32c0-8.8 7.2-16 16-16l32 0zM256 304c0 8.8-7.2 16-16 16l-32 0c-8.8 0-16-7.2-16-16l0-32c0-8.8 7.2-16 16-16l32 0c8.8 0 16 7.2 16 16l0 32zM112 320l-32 0c-8.8 0-16-7.2-16-16l0-32c0-8.8 7.2-16 16-16l32 0c8.8 0 16 7.2 16 16l0 32c0 8.8-7.2 16-16 16zm304-48l0 32c0 8.8-7.2 16-16 16l-32 0c-8.8 0-16-7.2-16-16l0-32c0-8.8 7.2-16 16-16l32 0c8.8 0 16 7.2 16 16zM400 64c8.8 0 16 7.2 16 16l0 32c0 8.8-7.2 16-16 16l-32 0c-8.8 0-16-7.2-16-16l0-32c0-8.8 7.2-16 16-16l32 0zm16 112l0 32c0 8.8-7.2 16-16 16l-32 0c-8.8 0-16-7.2-16-16l0-32c0-8.8 7.2-16 16-16l32 0c8.8 0 16 7.2 16 16z"/></svg>

<svg xmlns="http://www.w3.org/2000/svg" viewBox="0 0 640 512"><!--! Font Awesome Free 6.4.2 by @fontawesome - https://fontawesome.com License - https://fontawesome.com/license/free (Icons: CC BY 4.0, Fonts: SIL OFL 1.1, Code: MIT License) Copyright 2023 Fonticons, Inc. --><path d="M480 48c0-26.5-21.5-48-48-48H336c-26.5 0-48 21.5-48 48V96H224V24c0-13.3-10.7-24-24-24s-24 10.7-24 24V96H112V24c0-13.3-10.7-24-24-24S64 10.7 64 24V96H48C21.5 96 0 117.5 0 144v96V464c0 26.5 21.5 48 48 48H304h32 96H592c26.5 0 48-21.5 48-48V240c0-26.5-21.5-48-48-48H480V48zm96 320v32c0 8.8-7.2 16-16 16H528c-8.8 0-16-7.2-16-16V368c0-8.8 7.2-16 16-16h32c8.8 0 16 7.2 16 16zM240 416H208c-8.8 0-16-7.2-16-16V368c0-8.8 7.2-16 16-16h32c8.8 0 16 7.2 16 16v32c0 8.8-7.2 16-16 16zM128 400c0 8.8-7.2 16-16 16H80c-8.8 0-16-7.2-16-16V368c0-8.8 7.2-16 16-16h32c8.8 0 16 7.2 16 16v32zM560 256c8.8 0 16 7.2 16 16v32c0 8.8-7.2 16-16 16H528c-8.8 0-16-7.2-16-16V272c0-8.8 7.2-16 16-16h32zM256 176v32c0 8.8-7.2 16-16 16H208c-8.8 0-16-7.2-16-16V176c0-8.8 7.2-16 16-16h32c8.8 0 16 7.2 16 16zM112 160c8.8 0 16 7.2 16 16v32c0 8.8-7.2 16-16 16H80c-8.8 0-16-7.2-16-16V176c0-8.8 7.2-16 16-16h32zM256 304c0 8.8-7.2 16-16 16H208c-8.8 0-16-7.2-16-16V272c0-8.8 7.2-16 16-16h32c8.8 0 16 7.2 16 16v32zM112 320H80c-8.8 0-16-7.2-16-16V272c0-8.8 7.2-16 16-16h32c8.8 0 16 7.2 16 16v32c0 8.8-7.2 16-16 16zm304-48v32c0 8.8-7.2 16-16 16H368c-8.8 0-16-7.2-16-16V272c0-8.8 7.2-16 16-16h32c8.8 0 16 7.2 16 16zM400 64c8.8 0 16 7.2 16 16v32c0 8.8-7.2 16-16 16H368c-8.8 0-16-7.2-16-16V80c0-8.8 7.2-16 16-16h32zm16 112v32c0 8.8-7.2 16-16 16H368c-8.8 0-16-7.2-16-16V176c0-8.8 7.2-16 16-16h32c8.8 0 16 7.2 16 16z"/></svg>
